mapdrops/map-tickets.svg

<?xml version="1.0" encoding="utf-8"?>
<!-- Generator: Adobe Illustrator 24.3.0, SVG Export Plug-In . SVG Version: 6.00 Build 0)  -->
<svg version="1.1" id="Layer_1" xmlns="http://www.w3.org/2000/svg" xmlns:xlink="http://www.w3.org/1999/xlink" x="0px" y="0px"
	 viewBox="0 0 31 42" enable-background="new 0 0 31 42" xml:space="preserve">
<g id="Artwork_7_1_">
	<g>
		<defs>
			<rect id="SVGID_1_" x="0.9087982" y="1" width="29.1824036" height="40"/>
		</defs>
		<clipPath id="SVGID_2_">
			<use xlink:href="#SVGID_1_"  overflow="visible"/>
		</clipPath>
		<g clip-path="url(#SVGID_2_)">
			<defs>
				<rect id="SVGID_3_" x="0.9087982" y="1" width="29.1819992" height="40"/>
			</defs>
			<clipPath id="SVGID_4_">
				<use xlink:href="#SVGID_3_"  overflow="visible"/>
			</clipPath>
			<path clip-path="url(#SVGID_4_)" d="M28.4857979,8.4914017c-1.4720001-2.6749992-3.4790001-4.6819992-6.2880001-6.0199966
				c-2.2740002-1.0700035-4.5480003-1.4710007-7.0900002-1.4710007c-2.408,0.1339989-4.5480003,0.5349998-6.5550003,1.6049995
				c-3.8789997,2.007-6.2880001,5.0839996-7.223999,9.230999c-0.5349998,2.2740002-0.5349998,4.5480003-0.1340008,6.8219986
				c0.401001,2.007,1.2040005,3.8800011,2.2740002,5.6190014c1.0710011,1.4719982,2.1410007,3.0769997,3.2110004,4.5489979
				c2.2740002,2.9420013,4.5489998,5.7519989,6.5549994,8.6949997c0.8030005,1.0709991,1.4720001,2.2750015,2.2740002,3.4790001
				c0.1339998-0.1339989,0.1339998-0.2679977,0.2680006-0.4020004c0.9370003-1.4709969,1.8729992-2.942997,2.9429989-4.4149971
				c1.8729992-2.5419998,3.8789997-5.2160015,5.7520008-7.7580013c1.2039986-1.6060009,2.4089985-3.2110004,3.4789982-4.9510002
				c1.3380013-2.4069996,2.1400013-4.9489994,2.1400013-7.625C30.0907974,13.3074017,29.6897964,10.7654018,28.4857979,8.4914017"/>
		</g>
	</g>
</g>
<g>
	<path fill="#FFFFFF" d="M17.7999992,7.5999999c0.7999992,0.7999997,1.7000008,1.7000003,2.5,2.5000005
		C20.1999989,10.2000008,20.1999989,10.2000008,20,10.4000006c-0.5,0.3999996-0.3999996,0.8999996-0.1000004,1.1999998
		S20.7999992,12,21.1999989,11.5c0.1000004-0.1000004,0.1000004-0.1000004,0.2999992-0.3000002
		c0.7999992,0.8000002,1.7000008,1.6999998,2.5,2.5c-3.5,3.500001-7.1000004,7.0999994-10.6000004,10.5999994
		c-0.8000002-0.7999992-1.6999998-1.7000008-2.5-2.5c0.1000004-0.1000004,0.1000004-0.1000004,0.3000002-0.2999992
		c0.3999996-0.3999996,0.3999996-0.7999992,0-1.2000008C10.8999977,20,10.3999977,20,9.9999981,20.2999992
		c-0.1000004,0.1000004-0.1000004,0.2999992-0.3000002,0.2999992c-0.8000002-0.7999992-1.6999998-1.7000008-2.5-2.5
		C10.8000002,14.6999998,14.1999998,11.1000004,17.7999992,7.5999999z M13.3999996,23.1000004
		C16.5,20,19.5,17,22.7999992,13.7000008C22.3999996,13.3000011,22,12.9000006,21.5999985,12.500001c0,0,0,0-0.1000004-0.1000004
		l0,0c-0.7000008,0.3999996-1.5,0.3000002-2-0.3000002c-0.5-0.5-0.7000008-1.3000002-0.3999996-2
		c0-0.1000004,0-0.1000004,0-0.1000004c-0.2999992-0.1000004-0.5-0.3999996-0.7999992-0.6999998
		C18.1999989,9.1999998,18,9,17.7999992,8.8000002c-3.1000004,3.0999994-6.1000004,6.0999994-9.3999996,9.4000006
		C8.7999992,18.6000004,9.1999998,19,9.6999998,19.5c0.8000002-0.3999996,1.5-0.2999992,2,0.2999992
		C12.3999996,20.5,12.5,21.0999985,12.0999994,21.8999996C12.6000004,22.2999992,13,22.7000008,13.3999996,23.1000004z"/>
	<path fill="#FFFFFF" d="M16.7999992,13.1000004C17.0999985,13.4000006,17.1999989,13.5,17.5,13.8000002
		C17.2000008,14.1000004,17.1000004,14.1999998,16.7999992,14.5C16.5,14.1999998,16.3999996,14.1000004,16.0999985,13.8000002
		C16.3999996,13.5,16.5,13.3000002,16.7999992,13.1000004z"/>
	<path fill="#FFFFFF" d="M16.3999996,12.6000004C16.1000004,12.9000006,16,13,15.6999998,13.3000002
		C15.3999996,13,15.3000002,12.9000006,15,12.6000004c0.3000002-0.3000002,0.3999996-0.3999996,0.6999998-0.6999998
		C15.8000002,12.1999998,16.1000004,12.5,16.3999996,12.6000004z"/>
	<path fill="#FFFFFF" d="M18.3999996,16.1000004c0.2999992-0.3000002,0.3999996-0.3999996,0.7000008-0.6999998
		c0.2999992,0.3000002,0.3999996,0.3999996,0.7000008,0.6999998C19.5000019,16.3999996,19.4000015,16.5,19.1000004,16.8000011
		C18.7999992,16.5,18.6000004,16.2000008,18.3999996,16.1000004z"/>
	<path fill="#FFFFFF" d="M17.7999992,15.5C17.5,15.1999998,17.3999996,15.1000004,17.0999985,14.8000002
		c0.2999992-0.3000002,0.3999996-0.3999996,0.7000008-0.6999998C18.0999985,14.4000006,18.1999989,14.5,18.5,14.8000002
		C18.3999996,15.1000004,18.1000004,15.3000002,17.7999992,15.5z"/>
</g>
</svg>

<?xml version="1.0" encoding="utf-8"?>
<!-- Generator: Adobe Illustrator 25.2.1, SVG Export Plug-In . SVG Version: 6.00 Build 0)  -->
<svg version="1.1" id="Layer_1" xmlns="http://www.w3.org/2000/svg" xmlns:xlink="http://www.w3.org/1999/xlink" x="0px" y="0px"
	 viewBox="0 0 31 42" enable-background="new 0 0 31 42" xml:space="preserve">
<g id="Artwork_7_1_">
	<g>
		<g>
			<defs>
				<rect id="SVGID_1_" x="0.909" y="1" width="29.182" height="40"/>
			</defs>
			<clipPath id="SVGID_2_">
				<use xlink:href="#SVGID_1_"  overflow="visible"/>
			</clipPath>
			<g clip-path="url(#SVGID_2_)">
				<g>
					<defs>
						<rect id="SVGID_3_" x="0.909" y="1" width="29.182" height="40"/>
					</defs>
					<clipPath id="SVGID_4_">
						<use xlink:href="#SVGID_3_"  overflow="visible"/>
					</clipPath>
					<path clip-path="url(#SVGID_4_)" d="M28.486,8.491c-1.472-2.675-3.479-4.682-6.288-6.02C19.924,1.401,17.65,1,15.108,1
						C12.7,1.134,10.56,1.535,8.553,2.605c-3.879,2.007-6.288,5.084-7.224,9.231c-0.535,2.274-0.535,4.548-0.134,6.822
						c0.401,2.007,1.204,3.88,2.274,5.619c1.071,1.472,2.141,3.077,3.211,4.549c2.274,2.942,4.549,5.752,6.555,8.695
						c0.803,1.071,1.472,2.275,2.274,3.479c0.134-0.134,0.134-0.268,0.268-0.402c0.937-1.471,1.873-2.943,2.943-4.415
						c1.873-2.542,3.879-5.216,5.752-7.758c1.204-1.606,2.409-3.211,3.479-4.951c1.338-2.407,2.14-4.949,2.14-7.625
						C30.091,13.307,29.69,10.765,28.486,8.491"/>
				</g>
			</g>
		</g>
	</g>
</g>
<g>
	<path fill="#FFFFFF" d="M17.8,7.6c0.8,0.8,1.7,1.7,2.5,2.5c-0.1,0.1-0.1,0.1-0.3,0.3c-0.5,0.4-0.4,0.9-0.1,1.2s0.9,0.4,1.3-0.1
		c0.1-0.1,0.1-0.1,0.3-0.3c0.8,0.8,1.7,1.7,2.5,2.5c-3.5,3.5-7.1,7.1-10.6,10.6c-0.8-0.8-1.7-1.7-2.5-2.5c0.1-0.1,0.1-0.1,0.3-0.3
		c0.4-0.4,0.4-0.8,0-1.2c-0.3-0.3-0.8-0.3-1.2,0c-0.1,0.1-0.1,0.3-0.3,0.3c-0.8-0.8-1.7-1.7-2.5-2.5C10.8,14.7,14.2,11.1,17.8,7.6z
		 M13.4,23.1c3.1-3.1,6.1-6.1,9.4-9.4c-0.4-0.4-0.8-0.8-1.2-1.2c0,0,0,0-0.1-0.1l0,0c-0.7,0.4-1.5,0.3-2-0.3c-0.5-0.5-0.7-1.3-0.4-2
		c0-0.1,0-0.1,0-0.1c-0.3-0.1-0.5-0.4-0.8-0.7C18.2,9.2,18,9,17.8,8.8c-3.1,3.1-6.1,6.1-9.4,9.4c0.4,0.4,0.8,0.8,1.3,1.3
		c0.8-0.4,1.5-0.3,2,0.3c0.7,0.7,0.8,1.3,0.4,2.1C12.6,22.3,13,22.7,13.4,23.1z"/>
	<path fill="#FFFFFF" d="M16.8,13.1c0.3,0.3,0.4,0.4,0.7,0.7c-0.3,0.3-0.4,0.4-0.7,0.7c-0.3-0.3-0.4-0.4-0.7-0.7
		C16.4,13.5,16.5,13.3,16.8,13.1z"/>
	<path fill="#FFFFFF" d="M16.4,12.6c-0.3,0.3-0.4,0.4-0.7,0.7c-0.3-0.3-0.4-0.4-0.7-0.7c0.3-0.3,0.4-0.4,0.7-0.7
		C15.8,12.2,16.1,12.5,16.4,12.6z"/>
	<path fill="#FFFFFF" d="M18.4,16.1c0.3-0.3,0.4-0.4,0.7-0.7c0.3,0.3,0.4,0.4,0.7,0.7c-0.3,0.3-0.4,0.4-0.7,0.7
		C18.8,16.5,18.6,16.2,18.4,16.1z"/>
	<path fill="#FFFFFF" d="M17.8,15.5c-0.3-0.3-0.4-0.4-0.7-0.7c0.3-0.3,0.4-0.4,0.7-0.7c0.3,0.3,0.4,0.4,0.7,0.7
		C18.4,15.1,18.1,15.3,17.8,15.5z"/>
</g>
</svg>
